X: 88
T: Song of the Bear
C: Teton Sioux band 1911-1914
N: Derived from sioux088.krn
O: South Dakota, U.S.A.
N: Teton Sioux Music by Frances Densmore, 1918
Z: transcribed to **kern format by Craig Sapp
L: 1/8
M: 2/4
Q: 1/4=58
K: Gb clef=bass
%%linebreak <none>
E [I:setbarnb 1]| 
E2F E | 
E3B, | 
E2F/ E/ E/ =D/ | 
E< B,B,2- | 
B, B, B, B, | 
E2F E | 
E3B, | 
E2F/ E/ E/ =D/ ||  
[M:3/4]E< B,B,4 ||  
[M:2/4]B,2B,2 | 
B,2E/ B,3/ ||  
[M:3/4]A, G,G,4 ||  
[M:2/4]A,2B,/ A,3/ ||  
[M:3/4]G, E,E,4 | 
E,2-E,> G, G,/ E,3/ ||  
[M:2/4]E,2D,2 | 
B,,< B,, B,,3/ E/ | 
(E< B,) B, B, | 
B, (E/ B,/) B, B,3// G,// | 
B, (E/ B,<) B, A,/ | 
G, G, (G, E,) | 
E,2E,3/ B,,/ | 
E,2E, E, | 
G,< E, G, E,/ D,/ | 
B,,2B,,2 | 
B,,2z2 |]  



